!!!!SEGMENT: pl-sa--l-1643--045_anonim--salve-regina-a-10-voc.krn
!!!cenid: 16xx:1403
!!!COM: Anonim
!!!COM-rismID: pe30004985
!!!CDT:
!!!CNT:
!!!OTL: Salve Regina a 10 voc
!!!PDT:
!!!AGN: Sacred
!!!SMS-siglum: PL-SA
!!!SMS-shelfmark: L 1643
!!!SMS-shelfwork: 045 W
!!!SMS-variant:
!!!SMS-altvar:
!!!NIFC-rismSourceID: 1001064689
!!!NIFC-islandoraID:
!!!URL-pdf-islandora:
!!!URL-scan:
!!!ONB-nifc: UWAGA: 8 ksiąg. Primi chori: 1mus Cantus (75-77), C 2dus (75-76 i 76-77 podwójnie), C 3tius (73-75), Bassus (70-72); Secondi chori: Primus Cantus (71-72), C 2dus (74-75), Altus (72), Bassus (72-73). UWAGA: metrum 2/2. 10 głosów, 2 głosy w księdze C2, 1 głos zaginiony. Nie dodawać pustych linii, chyba że w rękopisie pojawiają się dodatkowe oznaczenia dotyczące pełnej obsady (a 4, a 8 itp.)
!!!AIN: 9 empty 1 vox
!!!key:
**kern	**kern	**text	**kern	**text	**kern	**text	**kern	**text	**kern	**text	**kern	**text	**kern	**text	**kern	**text	**kern	**text
*part10	*part9	*part9	*part8	*part8	*part7	*part7	*part6	*part6	*part5	*part5	*part4	*part4	*part3	*part3	*part2	*part2	*part1	*part1
*staff10	*staff9	*staff9	*staff8	*staff8	*staff7	*staff7	*staff6	*staff6	*staff5	*staff5	*staff4	*staff4	*staff3	*staff3	*staff2	*staff2	*staff1	*staff1
*Ivox	*Iempty	*	*Iempty	*	*Iempty	*	*Iempty	*	*Iempty	*	*Iempty	*	*Iempty	*	*Iempty	*	*Iempty	*
*I"[Voce]	*I"Secondi chori: Bassus	*	*I"Secondi chori: Altus	*	*I"Secondi chori: C 2dus	*	*I"Secondi chori: Primus Cantus	*	*I"Primi chori: Bassus	*	*I"Primi chori: C 3tius	*	*I"Primi chori: C 2dus (II)	*	*I"Primi chori: C 2dus (I)	*	*I"Primi chori: 1mus	*
*I'[Coro V]	*I'Coro 2 B	*	*I'Coro 2 A	*	*I'Coro 2 C 2	*	*I'Coro 2 C 1	*	*I'Coro 1 B	*	*I'Coro 1 C 3	*	*I'Coro 1 C 2 (II)	*	*I'Coro 1 C 2 (I)	*	*I'Coro 1 C 1	*
*clefG2	*clefC3	*	*clefC2	*	*clefC1	*	*clefG2	*	*clefC3	*	*clefC2	*	*clefC1	*	*clefC1	*	*clefG2	*
*k[b-]	*k[b-]	*	*k[b-]	*	*k[b-]	*	*k[b-]	*	*k[b-]	*	*k[b-]	*	*k[b-]	*	*k[b-]	*	*k[b-]	*
*g:	*g:	*	*g:	*	*g:	*	*g:	*	*g:	*	*g:	*	*g:	*	*g:	*	*g:	*
*M2/2	*M2/2	*	*M2/2	*	*M2/2	*	*M2/2	*	*M2/2	*	*M2/2	*	*M2/2	*	*M2/2	*	*M2/2	*
*met(C|)	*met(C|)	*	*met(C|)	*	*met(C|)	*	*met(C|)	*	*met(C|)	*	*met(C|)	*	*met(C|)	*	*met(C|)	*	*met(C|)	*
=1	=1	=1	=1	=1	=1	=1	=1	=1	=1	=1	=1	=1	=1	=1	=1	=1	=1	=1
*	*	*	*	*	*	*	*	*	*	*	*	*	*lig	*	*	*	*	*
!	!	!	!	!	!	!	!	!	!	!	!	!	!	!	!	!	!LO:TX:t=P:problem=problematyczny plik konsultowany z J.I i E.Z.	!
1ryy	00r	.	00r	.	00r	.	00r	.	1B-/	Vi-	1b-\	Vi-	1dd\	Vi-	1b-\	Vi-	2.dd\	Vi-
.	.	.	.	.	.	.	.	.	.	.	.	.	.	.	.	.	4ee\	.
=2-	=2-	=2-	=2-	=2-	=2-	=2-	=2-	=2-	=2-	=2-	=2-	=2-	=2-	=2-	=2-	=2-	=2-	=2-
1ryy	.	.	.	.	.	.	.	.	2f\	-ta	2a\	-ta	1cc\	.	2cc\	-ta	2ff\	-ta
.	.	.	.	.	.	.	.	.	2c/	dul-	2g\	dul-	.	.	2cc\	dul-	2ee-X\	dul-
=3-	=3-	=3-	=3-	=3-	=3-	=3-	=3-	=3-	=3-	=3-	=3-	=3-	=3-	=3-	=3-	=3-	=3-	=3-
1ryy	.	.	.	.	.	.	.	.	0g\	-ce-	2.b-\	-ce-	1dd\	.	0b-\	-ce-	0dd\	-ce-
.	.	.	.	.	.	.	.	.	.	.	4a\	.	.	.	.	.	.	.
*	*	*	*	*	*	*	*	*	*	*	*	*	*Xlig	*	*	*	*	*
=4-	=4-	=4-	=4-	=4-	=4-	=4-	=4-	=4-	=4-	=4-	=4-	=4-	=4-	=4-	=4-	=4-	=4-	=4-
1ryy	.	.	.	.	.	.	.	.	.	.	1g\	.	1g\	-ta	.	.	.	.
=5-	=5-	=5-	=5-	=5-	=5-	=5-	=5-	=5-	=5-	=5-	=5-	=5-	=5-	=5-	=5-	=5-	=5-	=5-
*	*	*	*	*	*	*	*	*	*	*	*	*	*lig	*	*	*	*	*
1ryy	2r	.	2r	.	2r	.	2r	.	2d\	-do	2a\	-do	1dd\	dul-	2a\	-do	2dd\	-do
.	2B-/	Vi-	2b-\	Vi-	2b-\	Vi-	4dd\	Vi-	2r	.	2r	.	.	.	2r	.	2r	.
.	.	.	.	.	.	.	4ee\	.	.	.	.	.	.	.	.	.	.	.
=6-	=6-	=6-	=6-	=6-	=6-	=6-	=6-	=6-	=6-	=6-	=6-	=6-	=6-	=6-	=6-	=6-	=6-	=6-
1ryy	2f\	-ta	2a\	-ta	2cc\	-ta	2ff\	-ta	0r	.	0r	.	1cc\	.	0r	.	0r	.
.	2c/	dul-	2g\	dul-	2cc\	dul-	2ee-X\	dul-	.	.	.	.	.	.	.	.	.	.
*	*	*	*	*	*	*	*	*	*	*	*	*	*Xlig	*	*	*	*	*
=7-	=7-	=7-	=7-	=7-	=7-	=7-	=7-	=7-	=7-	=7-	=7-	=7-	=7-	=7-	=7-	=7-	=7-	=7-
*	*	*	*	*	*	*	*	*	*	*	*	*	*lig	*	*	*	*	*
1ryy	1g\	-ce-	1g\	-ce-	1dd\	-ce-	1dd\	-ce-	.	.	.	.	1b-\	-ce-	.	.	.	.
=8-	=8-	=8-	=8-	=8-	=8-	=8-	=8-	=8-	=8-	=8-	=8-	=8-	=8-	=8-	=8-	=8-	=8-	=8-
!	!	!	!LO:TX:t=P:problem=# below	!	!	!	!	!	!	!	!	!	!	!	!	!	!	!
1ryy	2d\	-do	2f#X\	-do	2a\	-do	2dd\	-do	2r	.	2r	.	1a\	.	2r	.	2r	.
.	2r	.	2r	.	2r	.	2r	.	2f\	Vi-	2a\	Vi-	.	.	2cc\	Vi-	2ff\	Vi-
=9-	=9-	=9-	=9-	=9-	=9-	=9-	=9-	=9-	=9-	=9-	=9-	=9-	=9-	=9-	=9-	=9-	=9-	=9-
1ryy	00r	.	00r	.	00r	.	00r	.	2g\	-ta	2g\	-ta	1b-\	.	2b-\	-ta	2.dd\	-ta
.	.	.	.	.	.	.	.	.	2g\	dul-	2g\	dul-	.	.	2b-\	dul-	.	.
.	.	.	.	.	.	.	.	.	.	.	.	.	.	.	.	.	4eeny\	dul-
=10-	=10-	=10-	=10-	=10-	=10-	=10-	=10-	=10-	=10-	=10-	=10-	=10-	=10-	=10-	=10-	=10-	=10-	=10-
1ryy	.	.	.	.	.	.	.	.	4f\	-ce-	1a\	-ce-	1cc\	.	1a\	-ce-	1ff\	-ce-
.	.	.	.	.	.	.	.	.	4e\	.	.	.	.	.	.	.	.	.
.	.	.	.	.	.	.	.	.	4d\	.	.	.	.	.	.	.	.	.
.	.	.	.	.	.	.	.	.	4c/	.	.	.	.	.	.	.	.	.
*	*	*	*	*	*	*	*	*	*	*	*	*	*Xlig	*	*	*	*	*
=11-	=11-	=11-	=11-	=11-	=11-	=11-	=11-	=11-	=11-	=11-	=11-	=11-	=11-	=11-	=11-	=11-	=11-	=11-
*	*	*	*	*	*	*	*	*	*	*	*	*	*lig	*	*	*	*	*
1ryy	.	.	.	.	.	.	.	.	2B-/	-do	2d/	-do	1b-\	-do	2b-\	-do	2ff\	-do
.	.	.	.	.	.	.	.	.	2G/	dul-	2g\	dul-	.	.	2dd\	dul-	1gg\	dul-
=12-	=12-	=12-	=12-	=12-	=12-	=12-	=12-	=12-	=12-	=12-	=12-	=12-	=12-	=12-	=12-	=12-	=12-	=12-
1ryy	.	.	.	.	.	.	.	.	1d\	-ce-	1a\	-ce-	1a\	.	1dd\	-ce-	.	.
!	!	!	!	!	!	!	!	!	!	!	!	!	!	!	!	!	!LO:TX:t=P:problem=# below	!
.	.	.	.	.	.	.	.	.	.	.	.	.	.	.	.	.	2ff#X\	-ce-
=13-	=13-	=13-	=13-	=13-	=13-	=13-	=13-	=13-	=13-	=13-	=13-	=13-	=13-	=13-	=13-	=13-	=13-	=13-
1ryy	00r	.	00r	.	00r	.	00r	.	1G/	-do	1g\	-do	1g\,<	.	1dd\	-do	1gg\	-do
*	*	*	*	*	*	*	*	*	*	*	*	*	*Xlig	*	*	*	*	*
=14-	=14-	=14-	=14-	=14-	=14-	=14-	=14-	=14-	=14-	=14-	=14-	=14-	=14-	=14-	=14-	=14-	=14-	=14-
1ryy	.	.	.	.	.	.	.	.	2d\	et	2a\	et	1f/,<	et	2dd\	et	2ffny\	et
.	.	.	.	.	.	.	.	.	2d\	spes	2a\	spes	.	.	2dd\	spes	2ff\	spes
=15-	=15-	=15-	=15-	=15-	=15-	=15-	=15-	=15-	=15-	=15-	=15-	=15-	=15-	=15-	=15-	=15-	=15-	=15-
1ryy	.	.	.	.	.	.	.	.	2c/	no-	2cc\	no-	1g\,<	spes	2ee-X\	no-	2ee-X\	no-
*	*	*	*	*	*	*	*	*	*custos:B-	*	*	*	*	*	*custos:dd	*	*custos:dd	*
.	.	.	.	.	.	.	.	.	2c/	-stra	2cc\	-stra	.	.	2cc\	-stra	2ee-\	-stra
=16-	=16-	=16-	=16-	=16-	=16-	=16-	=16-	=16-	=16-	=16-	=16-	=16-	=16-	=16-	=16-	=16-	=16-	=16-
!	!	!	!	!	!	!	!	!	!LO:PB:g=original	!	!	!	!	!	!LO:LB:g=original	!	!LO:LB:g=original	!
1ryy	.	.	.	.	.	.	.	.	1B-/	sal-	2.f\	sal-	1b-\,<	no-	1dd\	sal-	1dd\	sal-
.	.	.	.	.	.	.	.	.	.	.	4g\	.	.	.	.	.	.	.
=17-	=17-	=17-	=17-	=17-	=17-	=17-	=17-	=17-	=17-	=17-	=17-	=17-	=17-	=17-	=17-	=17-	=17-	=17-
*	*	*	*	*	*	*	*	*	*	*	*	*	*lig	*	*	*	*	*
1ryy	2r	.	2r	.	2r	.	2r	.	2A/	-ue	2a\	-ue	1cc\	-stra	2cc\	-ue	2eeny\	-ue
*	*	*	*	*	*	*	*	*	*	*	*custos:f	*	*	*	*	*	*	*
.	2A/	Sal-	2a\	Sal-	2cc\	Sal-	2eeny\	Sal-	2r	.	2r	.	.	.	2r	.	2r	.
=18-	=18-	=18-	=18-	=18-	=18-	=18-	=18-	=18-	=18-	=18-	=18-	=18-	=18-	=18-	=18-	=18-	=18-	=18-
!	!	!	!	!	!	!	!	!	!	!	!LO:PB:g=original	!	!	!	!	!	!	!
1ryy	1B-/	.	2.fny\	.	1dd\	.	1dd\	.	0r	.	0r	.	1b-\	.	0r	.	0r	.
.	.	.	4g\	.	.	.	.	.	.	.	.	.	.	.	.	.	.	.
=19-	=19-	=19-	=19-	=19-	=19-	=19-	=19-	=19-	=19-	=19-	=19-	=19-	=19-	=19-	=19-	=19-	=19-	=19-
1ryy	1A/	-ue	1a\	-ue	1cc\	-ue	1ee\	-ue	.	.	.	.	1cc\	.	.	.	.	.
=20-	=20-	=20-	=20-	=20-	=20-	=20-	=20-	=20-	=20-	=20-	=20-	=20-	=20-	=20-	=20-	=20-	=20-	=20-
*	*	*	*	*	*	*	*	*	*lig	*	*lig	*	*	*	*	*	*	*
*	*	*	*	*	*	*	*	*	*	*	*	*	*custos:g	*	*	*	*	*
!	!	!	!	!	!	!	!	!	!	!	!LO:SIC:v:s=1f#	!	!	!	!	!	!	!
*	*	*	*	*	*	*	*	*	*	*	*	*	*	*	*lig	*	*	*
!	!	!	!	!	!	!	!	!	!	!	!	!	!	!	!	!	!LO:TX:t=P:problem=# below	!
*	*	*	*	*	*	*	*	*	*	*	*	*	*	*	*	*	*lig	*
1ryy	0r	.	0r	.	0r	.	0r	.	1d\	Sal-	1f\	Sal-	1dd\	.	1dd\	sal-	1ff#X\	sal-
*	*	*	*	*	*	*	*	*	*	*	*	*	*Xlig	*	*	*	*	*
=21-	=21-	=21-	=21-	=21-	=21-	=21-	=21-	=21-	=21-	=21-	=21-	=21-	=21-	=21-	=21-	=21-	=21-	=21-
*	*	*	*	*	*	*	*	*	*	*	*	*	*lig	*	*	*	*	*
!	!	!	!	!	!	!	!	!	!	!	!LO:SIC:v:s=1e	!	!LO:LB:g=original	!	!	!	!	!
1ryy	.	.	.	.	.	.	.	.	1e-X\	.	1e-\	.	1g\	sal-	1cc\	.	1gg\	.
*	*	*	*	*	*	*	*	*	*Xlig	*	*	*	*	*	*	*	*Xlig	*
=22-	=22-	=22-	=22-	=22-	=22-	=22-	=22-	=22-	=22-	=22-	=22-	=22-	=22-	=22-	=22-	=22-	=22-	=22-
!	!	!	!	!	!	!	!	!	!	!	!	!	!	!	!	!	!LO:TX:t=P:problem=# below	!
1ryy	1r	.	1r	.	1r	.	1r	.	1d\,<	-ue	1a\	.	1a\	.	1dd\	.	1ff#X\,<	-ue
*	*	*	*	*	*	*	*	*	*	*	*Xlig	*	*	*	*Xlig	*	*	*
=23-	=23-	=23-	=23-	=23-	=23-	=23-	=23-	=23-	=23-	=23-	=23-	=23-	=23-	=23-	=23-	=23-	=23-	=23-
1ryy	2G/	et	2d/	et	2dd\	et	2dd\	et	2g\	et	2g\,<	-ue	1b-\	.	2g/,<	-ue	2gg\	et
.	2G/	spes	2B-/	spes	2dd\	spes	2dd\	spes	2g\	spes	2g\	et	.	.	2dd\	et	2gg\	spes
=24-	=24-	=24-	=24-	=24-	=24-	=24-	=24-	=24-	=24-	=24-	=24-	=24-	=24-	=24-	=24-	=24-	=24-	=24-
!	!	!	!	!	!	!	!	!	!	!	!	!	!	!	!	!	!LO:TX:t=P:problem=# below	!
1ryy	1d\	no-	1d/	no-	1a\	no-	1dd\	.	1d\	.	1a\	spes	1a\	.	1dd\	spes	1ff#X\	nos-
=25-	=25-	=25-	=25-	=25-	=25-	=25-	=25-	=25-	=25-	=25-	=25-	=25-	=25-	=25-	=25-	=25-	=25-	=25-
1ryy	4G/	-ſtra	1d/	-stra	1b-\	-stra	1dd\	no-	1g\	no-	2b-\	no-	1g\	.	2dd\	nos-	2gg\	-tra
.	4A/	.	.	.	.	.	.	.	.	.	.	.	.	.	.	.	.	.
.	4B-/	.	.	.	.	.	.	.	.	.	2g\	-stra	.	.	2b-\	-tra	2.gg\	sal-
*	*custos:d	*	*	*	*	*	*	*	*	*	*	*	*	*	*	*	*	*
.	4c/	.	.	.	.	.	.	.	.	.	.	.	.	.	.	.	.	.
=26-	=26-	=26-	=26-	=26-	=26-	=26-	=26-	=26-	=26-	=26-	=26-	=26-	=26-	=26-	=26-	=26-	=26-	=26-
!	!LO:LB:g=original	!	!	!	!	!	!	!	!	!	!	!	!	!	!	!	!	!
1ryy	1d\	sal-	1d/	sal-	1dd\	sal-	1dd\	-stra	1d\	-stra	1a\	sal-	1f/	.	1a\	sal-	.	.
.	.	.	.	.	.	.	.	.	.	.	.	.	.	.	.	.	8ff#\L	.
.	.	.	.	.	.	.	.	.	.	.	.	.	.	.	.	.	8ee\J	.
.	.	.	.	.	.	.	.	.	.	.	.	.	.	.	.	.	2ff#X\	.
!	!	!	!	!	!	!	!	!	!	!	!	!	!	!	!	!	!LO:TX:t=P:problem=# below	!
*	*	*	*	*	*	*	*	*	*	*	*	*	*Xlig	*	*	*	*	*
=27-	=27-	=27-	=27-	=27-	=27-	=27-	=27-	=27-	=27-	=27-	=27-	=27-	=27-	=27-	=27-	=27-	=27-	=27-
*	*	*	*custos:d	*	*	*	*	*	*	*	*	*	*	*	*	*	*	*
!	!	!	!	!	!	!	!	!	!	!	!	!	!	!	!LO:TX:t=P:problem=# below	!	!	!
!	!	!	!	!	!	!	!	!	!	!	!	!	!	!	!LO:N:acc=#	!	!	!
1ryy	2G/	-ue	2d/	-ue	2dd\	-ue	2dd\	sal-	2g\	sal-	2g\	-ue	[1g\l	-ue	2bn\	-ue	2gg\	-ue
!	!	!	!LO:LB:g=original	!	!	!	!	!	!	!	!	!	!	!	!	!	!	!
.	1g\	et	1d/	et	1b-\	et	1dd\	-ue	1G/	-ue	1b-\	et	.	.	1dd\	et-	1dd\	et
=28-	=28-	=28-	=28-	=28-	=28-	=28-	=28-	=28-	=28-	=28-	=28-	=28-	=28-	=28-	=28-	=28-	=28-	=28-
1ryy	.	.	.	.	.	.	.	.	.	.	.	.	1g\_	.	.	.	.	.
*	*	*	*	*	*custos:g	*	*custos:cc	*	*	*	*	*	*	*	*	*	*	*
.	2g\	spes	2d/	spes	2b-\	spes	2dd\	et	2G/	et	2b-\	spes	.	.	2b-y\	-spes	2dd\	spes
=29-	=29-	=29-	=29-	=29-	=29-	=29-	=29-	=29-	=29-	=29-	=29-	=29-	=29-	=29-	=29-	=29-	=29-	=29-
!	!	!	!	!	!LO:LB:g=original	!	!LO:LB:g=original	!	!	!	!	!	!	!	!	!	!	!
1ryy	1c\	no-	1.g\	no-	2.g/	no-	4cc\	spes	4c/	spes	1g\	no-	1g\_	.	1cc\	n(os-	1ee-X\	.
.	.	.	.	.	.	.	4dd\	.	4d\	.	.	.	.	.	.	.	.	.
!	!	!	!	!	!	!	!	!	!LO:SIC:v:s=4e-	!	!	!	!	!	!	!	!	!
.	.	.	.	.	.	.	4ee-X\	nos-	4eny\	nos-	.	.	.	.	.	.	.	.
.	.	.	.	.	4a\	.	4cc\	.	4f\	.	.	.	.	.	.	.	.	.
=30-	=30-	=30-	=30-	=30-	=30-	=30-	=30-	=30-	=30-	=30-	=30-	=30-	=30-	=30-	=30-	=30-	=30-	=30-
1ryy	4G/	-ſtra	.	.	1b-\	-stra	1dd\	-tra	1g\	-tra	1g\	-stra	1g\_	.	1b-\	-t)ra	2dd\	no-
.	4A/	.	.	.	.	.	.	.	.	.	.	.	.	.	.	.	.	.
.	4B-/	.	2d/	-stra	.	.	.	.	.	.	.	.	.	.	.	.	4gg\	-stra
.	4G/	.	.	.	.	.	.	.	.	.	.	.	.	.	.	.	4ff\	.
=31-	=31-	=31-	=31-	=31-	=31-	=31-	=31-	=31-	=31-	=31-	=31-	=31-	=31-	=31-	=31-	=31-	=31-	=31-
1ryy	1c\	sal-	1g\	sal-	4g/	.	1cc\	sal-	1c\	sal-	1g\	sal-	1g\_	.	1cc\	Sal-	4ee-X\	sal-
.	.	.	.	.	4a\	.	.	.	.	.	.	.	.	.	.	.	4dd\	.
.	.	.	.	.	4b-\	sal-	.	.	.	.	.	.	.	.	.	.	2ee-X\	.
.	.	.	.	.	4g/	.	.	.	.	.	.	.	.	.	.	.	.	.
=32-	=32-	=32-	=32-	=32-	=32-	=32-	=32-	=32-	=32-	=32-	=32-	=32-	=32-	=32-	=32-	=32-	=32-	=32-
!	!	!	!	!	!	!	!	!	!	!	!	!	!	!	!LO:N:acc=#	!	!	!
0ryy	0G/;	-ue	0d/;	-ue	0dd\;	-ue	0dd\;	-ue	0g\;	-ue	0g\;	-ue	0g\]	.	0bn\	-ue	0dd\;	-ue
=33-	=33-	=33-	=33-	=33-	=33-	=33-	=33-	=33-	=33-	=33-	=33-	=33-	=33-	=33-	=33-	=33-	=33-	=33-
*	*M2/2	*	*M2/2	*	*M2/2	*	*M2/2	*	*	*	*M2/2	*	*M2/2	*	*	*	*	*
*	*met(C|)	*	*met(C|)	*	*met(C|)	*	*met(C|)	*	*	*	*met(C|)	*	*met(C|)	*	*	*	*	*
*	*	*	*	*	*	*	*	*	*	*	*	*	*lig	*	*	*	*	*
!	!	!	!	!	!	!	!	!	!LO:LB:g=original	!	!	!	!	!	!LO:LB:g=original	!	!LO:PB:g=original	!
1ryy	1r	.	1r	.	1r	.	1r	.	2c/	Ad	2g\	Ad	1g\	Ad	2cc\	Ad	2cc\	Ad
.	.	.	.	.	.	.	.	.	2g\	te	2b-\	te	.	.	2b-y\	te	2dd\	te
=34-	=34-	=34-	=34-	=34-	=34-	=34-	=34-	=34-	=34-	=34-	=34-	=34-	=34-	=34-	=34-	=34-	=34-	=34-
1ryy	2G/	Ad	2g\	Ad	2b-\	Ad	2dd\	At	1r	.	1r	.	1b-\	.	1r	.	1r	.
.	2B-/	te	2f\	te	2b-\	te	2dd\	te	.	.	.	.	.	.	.	.	.	.
=35-	=35-	=35-	=35-	=35-	=35-	=35-	=35-	=35-	=35-	=35-	=35-	=35-	=35-	=35-	=35-	=35-	=35-	=35-
1ryy	1r	.	1r	.	1r	.	1r	.	2c/	ad	2g\	ad	1cc\,<	.	2cc\	ad	2eeny\	ad
.	.	.	.	.	.	.	.	.	2f\	te	2a\	te	.	.	2a\	te	2ff\	te
*	*	*	*	*	*	*	*	*	*	*	*	*	*Xlig	*	*	*	*	*
=36-	=36-	=36-	=36-	=36-	=36-	=36-	=36-	=36-	=36-	=36-	=36-	=36-	=36-	=36-	=36-	=36-	=36-	=36-
*	*	*	*	*	*	*	*	*	*	*	*custos:a	*	*	*	*	*	*	*
1ryy	2d\	sus-	2a\	sus-	2dd\	sus-	2ff\	sus-	0r	.	0r	.	1dd\,<	te	0r	.	0r	.
.	2d\	-pi-	2f\	-pi-	2dd\	-pi-	2ff\	-pi-	.	.	.	.	.	.	.	.	.	.
=37-	=37-	=37-	=37-	=37-	=37-	=37-	=37-	=37-	=37-	=37-	=37-	=37-	=37-	=37-	=37-	=37-	=37-	=37-
1ryy	1B-/	-ra-	2.f\	-ra-	1dd\	-ra-	1dd\	-ra-	.	.	.	.	1ff\,<	sus-	.	.	.	.
.	.	.	4g\	.	.	.	.	.	.	.	.	.	.	.	.	.	.	.
=38-	=38-	=38-	=38-	=38-	=38-	=38-	=38-	=38-	=38-	=38-	=38-	=38-	=38-	=38-	=38-	=38-	=38-	=38-
*	*custos:A	*	*	*	*	*	*	*	*	*	*	*	*	*	*	*	*	*
!	!	!	!	!	!	!	!	!	!	!	!LO:LB:g=original	!	!	!	!	!	!	!
1ryy	1A/	-mus	1a\	-mus	1cc\	-mus	1eeny\	-mus	2r	.	2r	.	1cc\,<	-pi-	2r	.	2r	.
.	.	.	.	.	.	.	.	.	4A/	su-	4a\	su-	.	.	4cc\	su-	4ee\	su-
.	.	.	.	.	.	.	.	.	4A/	-spi-	4a\	-spi-	.	.	4cc\	-spi-	4ee\	-spi-
=39-	=39-	=39-	=39-	=39-	=39-	=39-	=39-	=39-	=39-	=39-	=39-	=39-	=39-	=39-	=39-	=39-	=39-	=39-
*	*	*	*	*	*	*	*	*	*	*	*	*	*lig	*	*	*	*	*
!	!LO:LB:g=original	!	!	!	!	!	!	!	!	!	!	!	!	!	!	!	!	!
1ryy	1r	.	1r	.	1r	.	1r	.	1B-/	-ra-	2.f\	-ra-	1dd\	-ra-	1b-\	-ra-	1dd\	-ra-
.	.	.	.	.	.	.	.	.	.	.	4g\	.	.	.	.	.	.	.
=40-	=40-	=40-	=40-	=40-	=40-	=40-	=40-	=40-	=40-	=40-	=40-	=40-	=40-	=40-	=40-	=40-	=40-	=40-
1ryy	2r	.	2r	.	2r	.	2r	.	1A/	-mus	1a\	-mus	1cc\	.	1cc\	-mus	1ee\	-mus
.	4A/	su-	4e/	sus-	4a\	sus-	4cc\	sus-	.	.	.	.	.	.	.	.	.	.
.	4A/	-spi-	4e/	-pi-	4a\	-pi-	4cc\	-pi-	.	.	.	.	.	.	.	.	.	.
=41-	=41-	=41-	=41-	=41-	=41-	=41-	=41-	=41-	=41-	=41-	=41-	=41-	=41-	=41-	=41-	=41-	=41-	=41-
1ryy	1G/	-ra-	2.g\	-ra-	1b-\	-ra-	1dd\	-ra-	1r	.	1r	.	1b-\	.	1r	.	1r	.
.	.	.	4f\	.	.	.	.	.	.	.	.	.	.	.	.	.	.	.
=42-	=42-	=42-	=42-	=42-	=42-	=42-	=42-	=42-	=42-	=42-	=42-	=42-	=42-	=42-	=42-	=42-	=42-	=42-
1ryy	2A/	-mus	2e/	-mus	2cc\	-mus	2cc\	-mus	2r	.	2r	.	1a\	.	2r	.	2r	.
*	*	*	*custos:bn	*	*	*	*	*	*	*	*	*	*	*	*	*	*	*
.	2r	.	2r	.	2r	.	2r	.	2d\	ge-	2a\	ge-	.	.	2dd\	ge-	2ff\	ge-
=43-	=43-	=43-	=43-	=43-	=43-	=43-	=43-	=43-	=43-	=43-	=43-	=43-	=43-	=43-	=43-	=43-	=43-	=43-
!	!	!	!LO:LB:g=original	!	!	!	!	!	!	!	!	!	!	!	!	!	!	!
1ryy	1r	.	1r	.	1r	.	1r	.	1A/	-men-	1a\	-men-	1cc\	.	2.cc\	-men-	1ee\	-men-
.	.	.	.	.	.	.	.	.	.	.	.	.	.	.	4b-\	.	.	.
*	*	*	*	*	*	*	*	*	*	*	*	*	*Xlig	*	*	*	*	*
=44-	=44-	=44-	=44-	=44-	=44-	=44-	=44-	=44-	=44-	=44-	=44-	=44-	=44-	=44-	=44-	=44-	=44-	=44-
1ryy	2r	.	2r	.	2r	.	2r	.	2d\	-tes	2a\	-tes	1dd\,<	-mus	2a\	-tes	2dd\	-tes
!	!	!	!LO:N:acc=#	!	!	!	!	!	!	!	!	!	!	!	!	!	!	!
!	!	!	!LO:TX:t=P:problem=# below	!	!	!	!	!	!	!	!	!	!	!	!	!	!	!
.	2G/	et	2bn\	et	2dd\	et	2dd\	et	2r	.	2r	.	.	.	2r	.	2r	.
=45-	=45-	=45-	=45-	=45-	=45-	=45-	=45-	=45-	=45-	=45-	=45-	=45-	=45-	=45-	=45-	=45-	=45-	=45-
1ryy	1c\	flen-	1cc\	flen-	1cc\	flen-	1ee-X\	flen-	1r	.	1r	.	1g\	ge-	1r	.	1r	.
=46-	=46-	=46-	=46-	=46-	=46-	=46-	=46-	=46-	=46-	=46-	=46-	=46-	=46-	=46-	=46-	=46-	=46-	=46-
*	*	*	*	*	*custos:cc	*	*custos:cc#	*	*	*	*	*	*	*	*	*	*	*
!	!	!	!LO:N:acc=#	!	!	!	!	!	!	!	!	!	!	!	!	!	!	!
!	!	!	!LO:TX:t=P:problem=# below	!	!	!	!	!	!	!	!	!LO:SIC:v:s=1bn	!	!	!	!	!	!
1ryy	1G/	-tes	1bn\	-tes	1dd\	-tes	1dd\	-tes	2r	.	2r	.	1b-\	-men-	2r	.	2r	.
.	.	.	.	.	.	.	.	.	2g\	ge-	2b-\	ge-	.	.	2dd\	ge-	2dd\	ge-
=47-	=47-	=47-	=47-	=47-	=47-	=47-	=47-	=47-	=47-	=47-	=47-	=47-	=47-	=47-	=47-	=47-	=47-	=47-
*	*	*	*	*	*	*	*	*	*	*	*	*	*custos:g	*	*	*	*	*
!	!	!	!	!	!LO:LB:g=original	!	!LO:LB:g=original	!	!	!	!	!	!	!	!	!	!	!
1ryy	0r	.	0r	.	0r	.	0r	.	2.c/	-men-	0g\	-men-	1cc\	-tes	1cc\	-men-	2.ee\	-men-
.	.	.	.	.	.	.	.	.	4d\	.	.	.	.	.	.	.	4ff\	.
=48-	=48-	=48-	=48-	=48-	=48-	=48-	=48-	=48-	=48-	=48-	=48-	=48-	=48-	=48-	=48-	=48-	=48-	=48-
*	*	*	*	*	*	*	*	*	*	*	*	*	*lig	*	*	*	*	*
!	!	!	!	!	!	!	!	!	!	!	!	!	!LO:PB:g=original	!	!	!	!	!
1ryy	.	.	.	.	.	.	.	.	1e-X\	.	.	.	1g\	et	2.b-\	.	1gg\	.
.	.	.	.	.	.	.	.	.	.	.	.	.	.	.	4cc\	.	.	.
=49-	=49-	=49-	=49-	=49-	=49-	=49-	=49-	=49-	=49-	=49-	=49-	=49-	=49-	=49-	=49-	=49-	=49-	=49-
!	!	!	!	!	!	!	!	!	!	!	!	!	!	!	!	!	!LO:TX:t=P:problem=# below	!
1ryy	2r	.	2r	.	2r	.	2r	.	2d\	-tes	2a\	-tes	1a\,<	.	2dd\	-tes	2ff#X\	-tes
!	!	!	!	!	!LO:SIC:v:s=2cc#	!	!LO:TX:t=P:problem=# below	!	!	!	!	!	!	!	!	!	!	!
.	2A/	et	2e/	et	2cc\	et	2cc#X\	et	2r	.	2r	.	.	.	2r	.	2r	.
*	*	*	*	*	*	*	*	*	*	*	*	*	*Xlig	*	*	*	*	*
=50-	=50-	=50-	=50-	=50-	=50-	=50-	=50-	=50-	=50-	=50-	=50-	=50-	=50-	=50-	=50-	=50-	=50-	=50-
*	*	*	*	*	*	*	*	*	*	*	*	*	*lig	*	*	*	*	*
!	!	!	!	!	!LO:SIC:v:s=1bn	!	!	!	!	!	!	!	!LO:SIC:v:s=1bn	!	!	!	!	!
1ryy	1G/	flen-	2.g\	flen-	1b-\	flen-	1dd\	flen-	1r	.	1r	.	1b-\	flen-	1r	.	1r	.
.	.	.	4f\	.	.	.	.	.	.	.	.	.	.	.	.	.	.	.
=51-	=51-	=51-	=51-	=51-	=51-	=51-	=51-	=51-	=51-	=51-	=51-	=51-	=51-	=51-	=51-	=51-	=51-	=51-
!	!	!	!	!	!LO:SIC:v:s=2cc#	!	!LO:TX:t=P:problem=# below	!	!	!	!	!	!	!	!	!	!	!
1ryy	2A/	-tes	2e/	-tes	2cc\	-tes	2cc#X\	-tes	2r	.	2r	.	1a\	.	2r	.	2r	.
*	*	*	*	*	*	*	*	*	*	*	*	*	*	*	*	*	*custos:gg	*
*	*	*	*	*	*	*	*	*	*	*	*	*	*	*	*custos:b-	*	*	*
!	!	!	!	!	!	!	!	!	!LO:TX:t=P:problem=4 takty dopisany na dole strony	!	!	!	!	!	!	!	!LO:TX:t=P:problem=# below	!
.	2r	.	2r	.	2r	.	2r	.	2d/	ge-	2a\	ge-	.	.	2dd\	ge-	2ff#X\	ge-
=52-	=52-	=52-	=52-	=52-	=52-	=52-	=52-	=52-	=52-	=52-	=52-	=52-	=52-	=52-	=52-	=52-	=52-	=52-
!	!	!	!	!	!	!	!	!	!	!	!	!	!	!	!LO:LB:g=original	!	!LO:LB:g=original	!
1ryy	1r	.	1r	.	1r	.	1r	.	1e-X\	-men-	1g\	-men-	1g\	.	2.b-\	-men-	1gg\	-men-
.	.	.	.	.	.	.	.	.	.	.	.	.	.	.	4cc\	.	.	.
*	*	*	*	*	*	*	*	*	*	*	*	*	*Xlig	*	*	*	*	*
=53-	=53-	=53-	=53-	=53-	=53-	=53-	=53-	=53-	=53-	=53-	=53-	=53-	=53-	=53-	=53-	=53-	=53-	=53-
1ryy	2r	.	2r	.	2r	.	2r	.	1d\	-tes	1a\	-tes	1f/,<	-tes	1dd\	-tes	1ffny\	-tes
.	2d\	et	2d/	et	2a\	et	2ff\	et	.	.	.	.	.	.	.	.	.	.
=54-	=54-	=54-	=54-	=54-	=54-	=54-	=54-	=54-	=54-	=54-	=54-	=54-	=54-	=54-	=54-	=54-	=54-	=54-
1ryy	1c\	flen-	2.g\	flen-	1cc\	flen-	1ee-X\	flen-	1r	.	1r	.	1g\	in	1r	.	1r	.
.	.	.	4a\	.	.	.	.	.	.	.	.	.	.	.	.	.	.	.
=55-	=55-	=55-	=55-	=55-	=55-	=55-	=55-	=55-	=55-	=55-	=55-	=55-	=55-	=55-	=55-	=55-	=55-	=55-
*	*	*	*	*	*	*	*	*	*	*	*	*	*lig	*	*	*	*	*
1ryy	1G/	-tes	1b-y\	-tes	1dd\	-tes	1dd\	-tes	2r	.	2r	.	1g\	hac	2r	.	2r	.
.	.	.	.	.	.	.	.	.	2g\	in	2g\	in	.	.	4b-\	in	4dd\	in
.	.	.	.	.	.	.	.	.	.	.	.	.	.	.	4cc\	.	4ee\	.
=56-	=56-	=56-	=56-	=56-	=56-	=56-	=56-	=56-	=56-	=56-	=56-	=56-	=56-	=56-	=56-	=56-	=56-	=56-
1ryy	00r	.	00r	.	00r	.	00r	.	2.d\	hac	1a\	hac	1f/	.	2.dd\	hac	2.ff\	hac
*	*	*	*	*	*	*	*	*	*custos:B-	*	*	*	*	*	*	*	*	*
.	.	.	.	.	.	.	.	.	4c/	.	.	.	.	.	4a\	.	4ee\	.
=57-	=57-	=57-	=57-	=57-	=57-	=57-	=57-	=57-	=57-	=57-	=57-	=57-	=57-	=57-	=57-	=57-	=57-	=57-
!	!	!	!	!	!	!	!	!	!LO:LB:g=original	!	!	!	!	!	!	!	!	!
1ryy	.	.	.	.	.	.	.	.	2.B-/	la-	2d/	la-	1b-\,<	.	2.b-\	la-	2.dd\	la-
.	.	.	.	.	.	.	.	.	.	.	2d/	-cri-	.	.	.	.	.	.
.	.	.	.	.	.	.	.	.	4A/	.	.	.	.	.	4cc\	-cri-	4cc\	-cri-
*	*	*	*	*	*	*	*	*	*	*	*	*	*Xlig	*	*	*	*	*
=58-	=58-	=58-	=58-	=58-	=58-	=58-	=58-	=58-	=58-	=58-	=58-	=58-	=58-	=58-	=58-	=58-	=58-	=58-
*	*	*	*	*	*	*	*	*	*	*	*	*	*lig	*	*	*	*	*
1ryy	.	.	.	.	.	.	.	.	1G/	-cri-	4g\	-ma-	1b-\	la-	2b-\	-ma-	2dd\	-ma-
.	.	.	.	.	.	.	.	.	.	.	4a\	.	.	.	.	.	.	.
*	*	*	*	*	*	*	*	*	*	*	*custos:a	*	*	*	*	*	*	*
.	.	.	.	.	.	.	.	.	.	.	2b-\	-rum	.	.	2dd\	.	4gg\	-rum
.	.	.	.	.	.	.	.	.	.	.	.	.	.	.	.	.	4ff\	.
=59-	=59-	=59-	=59-	=59-	=59-	=59-	=59-	=59-	=59-	=59-	=59-	=59-	=59-	=59-	=59-	=59-	=59-	=59-
!	!	!	!	!	!	!	!	!	!	!	!LO:LB:g=original	!	!	!	!	!	!	!
1ryy	.	.	.	.	.	.	.	.	1A/	-ma-	2.a\	val-	1cc\	.	1cc\	-rum	1ee\	val-
.	.	.	.	.	.	.	.	.	.	.	4g\	.	.	.	.	.	.	.
=60-	=60-	=60-	=60-	=60-	=60-	=60-	=60-	=60-	=60-	=60-	=60-	=60-	=60-	=60-	=60-	=60-	=60-	=60-
1ryy	0r	.	0r	.	0r	.	0r	.	1B-/	-rum	4f\	.	1dd\	.	2.b-\	Val-	2dd\	-le
.	.	.	.	.	.	.	.	.	.	.	4eny/	.	.	.	.	.	.	.
.	.	.	.	.	.	.	.	.	.	.	2d/	-le	.	.	.	.	2dd\	in
.	.	.	.	.	.	.	.	.	.	.	.	.	.	.	4a\	.	.	.
*	*	*	*	*	*	*	*	*	*	*	*	*	*Xlig	*	*	*	*	*
=61-	=61-	=61-	=61-	=61-	=61-	=61-	=61-	=61-	=61-	=61-	=61-	=61-	=61-	=61-	=61-	=61-	=61-	=61-
1ryy	.	.	.	.	.	.	.	.	1c\	val-	1g\	in	1cc\	-cri-	2g/	-le	1ee-X\	hac
.	.	.	.	.	.	.	.	.	.	.	.	.	.	.	2cc\	in	.	.
=62-	=62-	=62-	=62-	=62-	=62-	=62-	=62-	=62-	=62-	=62-	=62-	=62-	=62-	=62-	=62-	=62-	=62-	=62-
*	*	*	*	*	*	*	*	*	*	*	*	*	*lig	*	*	*	*	*
1ryy	2r	.	2r	.	2r	.	2r	.	2G/	-le	2g\	hac	1b-\	-ma-	2dd\	.	2dd\	.
.	2B-/	in	2f\	in	2dd\	in	2dd\	in	2A/	in	2f\	.	.	.	2b-\	hac	4dd\	la-
.	.	.	.	.	.	.	.	.	.	.	.	.	.	.	.	.	4eeny\	-cri-
=63-	=63-	=63-	=63-	=63-	=63-	=63-	=63-	=63-	=63-	=63-	=63-	=63-	=63-	=63-	=63-	=63-	=63-	=63-
1ryy	4F/	hac	1f\	hac	2a\	hac	1ccny\	hac	1f\	hac	2.a\	la-	1a\,<	.	1cc\	.	1ff\	-ma-
.	4G/	.	.	.	.	.	.	.	.	.	.	.	.	.	.	.	.	.
.	4A/	.	.	.	2cc\	la-	.	.	.	.	.	.	.	.	.	.	.	.
*	*custos:B-	*	*	*	*	*	*	*	*	*	*	*	*	*	*	*	*	*
.	4F/	.	.	.	.	.	.	.	.	.	4g\	-cri-	.	.	.	.	.	.
*	*	*	*	*	*	*	*	*	*	*	*	*	*Xlig	*	*	*	*	*
=64-	=64-	=64-	=64-	=64-	=64-	=64-	=64-	=64-	=64-	=64-	=64-	=64-	=64-	=64-	=64-	=64-	=64-	=64-
*	*	*	*	*	*	*	*	*	*	*	*	*	*lig	*	*	*	*	*
!	!LO:LB:g=original	!	!	!	!	!	!	!	!	!	!	!	!	!	!	!	!	!
1ryy	4B-/	la-	2.f\	la-	2.f/	-cri-	4dd\	.	1B-/	la-	2.f\	-ma-	1b-\	-rum	1b-\	la-	2.dd\	-rum
.	4c/	.	.	.	.	.	4eeny\	.	.	.	.	.	.	.	.	.	.	.
.	4d\	.	.	.	.	.	2ff\	la-	.	.	.	.	.	.	.	.	.	.
.	4e\	.	4d/	-cri-	4g/	.	.	.	.	.	4g\	.	.	.	.	.	4ee\	.
=65-	=65-	=65-	=65-	=65-	=65-	=65-	=65-	=65-	=65-	=65-	=65-	=65-	=65-	=65-	=65-	=65-	=65-	=65-
1ryy	1f\	-cri-	1.f\	-ma-	1a\	-ma-	1cc\	-cri-	4F/	-cri-	1a\	-rum	1cc\,<	.	1a\	-cri-	2.ff\	val-
.	.	.	.	.	.	.	.	.	4G/	.	.	.	.	.	.	.	.	.
.	.	.	.	.	.	.	.	.	4A/	.	.	.	.	.	.	.	.	.
*	*	*	*	*	*	*	*	*	*	*	*	*	*	*	*	*	*custos:dd	*
.	.	.	.	.	.	.	.	.	4F/	.	.	.	.	.	.	.	4ee\	.
*	*	*	*	*	*	*	*	*	*	*	*	*	*Xlig	*	*	*	*	*
=66-	=66-	=66-	=66-	=66-	=66-	=66-	=66-	=66-	=66-	=66-	=66-	=66-	=66-	=66-	=66-	=66-	=66-	=66-
*	*	*	*	*	*	*	*	*	*	*	*	*	*lig	*	*	*	*	*
!	!	!	!	!	!	!	!	!	!	!	!	!	!	!	!	!	!LO:LB:g=original	!
1ryy	2B-/	-ma-	.	.	2f/	-rum	2dd\	-ma-	2B-/	-ma-	2f\	val-	1b-\	Val-	2b-\	-ma-	2dd\	-le
.	2g\	-rum	2d/	-rum	4b-\	.	4b-/	.	2G/	-rum	2g\	.	.	.	1dd\	.	2.gg\	val-
.	.	.	.	.	4cc\	.	4cc\	.	.	.	.	.	.	.	.	.	.	.
=67-	=67-	=67-	=67-	=67-	=67-	=67-	=67-	=67-	=67-	=67-	=67-	=67-	=67-	=67-	=67-	=67-	=67-	=67-
1ryy	1d\	Val-	1d/	Val-	1dd\	val-	1dd\	-rum	1d\	val-	2a\	.	1a\	.	.	.	.	.
.	.	.	.	.	.	.	.	.	.	.	.	.	.	.	.	.	8ff\L	.
.	.	.	.	.	.	.	.	.	.	.	.	.	.	.	.	.	8ee\J	.
!	!	!	!	!	!	!	!	!	!	!	!	!	!	!	!	!	!LO:TX:t=P:problem=# below	!
.	.	.	.	.	.	.	.	.	.	.	2d/	.	.	.	2a\	.	2ff#X\	.
=68-	=68-	=68-	=68-	=68-	=68-	=68-	=68-	=68-	=68-	=68-	=68-	=68-	=68-	=68-	=68-	=68-	=68-	=68-
1ryy	2g\	-le	2d/	-le	2dd\	-le	2dd\	val-	2G/	-le	2g\,<	-le	1g\	.	2b-\,<	-r(um)	2gg\	-le
*	*	*	*custos:d	*	*	*	*	*	*	*	*	*	*	*	*	*	*	*
.	2G/	in	2d/	in	2b-\	in	4b-/	-le	2g\	in	2g\	in	.	.	2dd\	in	2gg\	in
.	.	.	.	.	.	.	4cc\	in	.	.	.	.	.	.	.	.	.	.
=69-	=69-	=69-	=69-	=69-	=69-	=69-	=69-	=69-	=69-	=69-	=69-	=69-	=69-	=69-	=69-	=69-	=69-	=69-
*	*	*	*	*	*custos:bn	*	*	*	*	*	*	*	*	*	*	*	*	*
!	!	!	!LO:LB:g=original	!	!	!	!	!	!	!	!	!	!LO:SIC:v:s=1f#	!	!	!	!LO:TX:t=P:problem=# below	!
1ryy	1d\	hac	1d/	hac	1a\	hac	1dd\	hac	1d\	hac	1a\	hac	1f/	.	1dd\	hac	1ff#X\	hac
*	*	*	*	*	*	*	*	*	*	*	*	*	*Xlig	*	*	*	*	*
=70-	=70-	=70-	=70-	=70-	=70-	=70-	=70-	=70-	=70-	=70-	=70-	=70-	=70-	=70-	=70-	=70-	=70-	=70-
!	!	!	!	!	!LO:LB:g=original	!	!	!	!	!	!	!	!	!	!	!	!	!
!	!	!	!	!	!LO:N:acc=#	!	!	!	!	!	!	!	!	!	!	!	!	!
!	!	!	!	!	!LO:TX:t=P:problem=# below	!	!	!	!	!	!	!	!	!	!	!	!	!
1ryy	2G/	la-	2d/	la-	2bn\	la-	2dd\	la-	2g\	la-	2g\	la-	[1g\;l	-le	2dd\	la-	2gg\	la-
*	*	*	*	*	*	*	*custos:cc	*	*	*	*	*	*	*	*	*	*	*
!	!	!	!	!	!	!	!	!	!	!	!	!	!	!	!LO:SIC:v:s=2bn\	!	!	!
.	2G/	-cri-	2g\	-cri-	2b\	-cri-	2dd\	-cri-	2g\	-cri-	2g\	-cri-	.	.	2b-\	-cri-	4gg\	-cri-
.	.	.	.	.	.	.	.	.	.	.	.	.	.	.	.	.	4ff\	.
=71-	=71-	=71-	=71-	=71-	=71-	=71-	=71-	=71-	=71-	=71-	=71-	=71-	=71-	=71-	=71-	=71-	=71-	=71-
!	!	!	!	!	!	!	!LO:LB:g=original	!	!	!	!	!	!	!	!	!	!	!
1ryy	2c/	-ma-	2g\	-ma-	2cc\	-ma-	2cc\	-ma-	2c/	-ma-	2g\	-ma-	1g\_	.	2cc\	-ma-	2ee-X\	-ma-
!	!	!	!	!	!	!	!	!	!	!	!	!	!	!	!LO:SIC:v:s=2bn\	!	!	!
.	2G/	-rum	2d/	-rum	2b\	-rum	2dd\	-rum	2g\	-rum	2g\	-rum	.	.	2b-\	-rum	2dd\	-rum
=72-	=72-	=72-	=72-	=72-	=72-	=72-	=72-	=72-	=72-	=72-	=72-	=72-	=72-	=72-	=72-	=72-	=72-	=72-
1ryy	1c\	Val-	1g\	Val-	2cc\	val-	4ee-X\	val-	1c\	val-	1g\	val-	1g\_	.	2g/	Val-	4cc\	val-
.	.	.	.	.	.	.	4dd\	.	.	.	.	.	.	.	.	.	4dd\	.
.	.	.	.	.	2g/	.	2cc\	.	.	.	.	.	.	.	2cc\	.	2ee-X\	-le
=73-	=73-	=73-	=73-	=73-	=73-	=73-	=73-	=73-	=73-	=73-	=73-	=73-	=73-	=73-	=73-	=73-	=73-	=73-
!	!	!	!	!	!	!	!	!	!	!	!	!	!	!	!LO:TX:t=P:problem=# below	!	!	!
!	!	!	!	!	!	!	!	!	!	!	!	!	!	!	!LO:N:acc=#	!	!	!
0ryy	0G/;	-le	0g\;	-le	0dd\;	-le	0dd\;	-le	0g\;	-le.	0g\;	-le	0g\]	.	0b\;	-le-	0dd\;	.
=74-	=74-	=74-	=74-	=74-	=74-	=74-	=74-	=74-	=74-	=74-	=74-	=74-	=74-	=74-	=74-	=74-	=74-	=74-
*M2/2	*	*	*M2/2	*	*M2/2	*	*M2/2	*	*	*	*	*	*	*	*M2/2	*	*M2/2	*
*met(C|)	*	*	*met(C|)	*	*met(C|)	*	*met(C|)	*	*	*	*	*	*	*	*met(C|)	*	*met(C|)	*
!	!LO:PB:g=original	!	!	!	!	!	!	!	!	!	!	!	!	!	!	!	!	!
!	!LO:TX:t=P:problem=brak taktu (pauzy?), lub za długa nuta w Coro 2 C 1	!	!LO:TX:t=P:problem=brak taktu (pauzy?), lub za długa nuta w Coro 2 C 1	!	!LO:TX:t=P:problem=brak taktu (pauzy?), lub za długa nuta w Coro 2 C 1	!	!	!	!LO:TX:t=P:problem=brak taktu (pauzy?), lub za długa nuta w Coro 2 C 1	!	!LO:TX:t=P:problem=brak taktu (pauzy?), lub za długa nuta w Coro 2 C 1	!	!LO:TX:t=P:problem=brak taktu (pauzy?), lub za długa nuta w Coro 2 C 1	!	!LO:TX:t=P:problem=brak taktu (pauzy?), lub za długa nuta w Coro 2 C 1	!	!LO:TX:t=P:problem=brak taktu (pauzy?), lub za długa nuta w Coro 2 C 1	!
1ryy	1ryy	.	1ryy	.	1ryy	.	0dd\	Et	1ryy	.	1ryy	.	1ryy	.	1ryy	.	1ryy	.
=75-	=75-	=75-	=75-	=75-	=75-	=75-	=75-	=75-	=75-	=75-	=75-	=75-	=75-	=75-	=75-	=75-	=75-	=75-
!	!	!	!	!	!	!	!	!	!	!	!LO:LB:g=original	!	!LO:LB:g=original	!	!LO:PB:g=original	!	!	!
1ryy	1.G/	Et	2a\	Et	2.b-y\	Et	.	.	1.g\	Et	1d/	Et	1g\	Et	0b-y\	Et	0dd\	Et
.	.	.	2.d/	JE-	.	.	.	.	.	.	.	.	.	.	.	.	.	.
.	.	.	.	.	4a\	.	.	.	.	.	.	.	.	.	.	.	.	.
=76-	=76-	=76-	=76-	=76-	=76-	=76-	=76-	=76-	=76-	=76-	=76-	=76-	=76-	=76-	=76-	=76-	=76-	=76-
*	*	*	*	*	*	*	*lig	*	*	*	*	*	*	*	*	*	*	*
1ryy	.	.	.	.	2g/	JE-	1b-\	JE-	.	.	2g\	JE-	1d/	JE-	.	.	.	.
.	.	.	4e/	.	.	.	.	.	.	.	.	.	.	.	.	.	.	.
.	2B-/	.	4f\	.	2dd\	.	.	.	4d\	JE-	1f\	.	.	.	.	.	.	.
.	.	.	4g\	.	.	.	.	.	4eny\	.	.	.	.	.	.	.	.	.
=77-	=77-	=77-	=77-	=77-	=77-	=77-	=77-	=77-	=77-	=77-	=77-	=77-	=77-	=77-	=77-	=77-	=77-	=77-
*	*	*	*	*	*	*	*	*	*	*	*	*	*lig	*	*lig	*	*	*
1ryy	4F/	JE-	1a\	.	2a\,<	-svm	1cc\	.	2.f\	-[[svm]]-	.	.	1f/	-svm	1a\	JE-	2.cc\	JE-
.	4G/	.	.	.	.	.	.	.	.	.	.	.	.	.	.	.	.	.
.	4A/	.	.	.	1cc\	be-	.	.	.	.	2c/	.	.	.	.	.	.	.
.	4B-/	.	.	.	.	.	.	.	8e\L	.	.	.	.	.	.	.	4dd\	.
.	.	.	.	.	.	.	.	.	8d\J	.	.	.	.	.	.	.	.	.
*	*	*	*	*	*	*	*Xlig	*	*	*	*	*	*	*	*	*	*	*
=78-	=78-	=78-	=78-	=78-	=78-	=78-	=78-	=78-	=78-	=78-	=78-	=78-	=78-	=78-	=78-	=78-	=78-	=78-
*	*	*	*	*	*	*	*	*	*	*	*	*	*	*	*	*	*custos:dd	*
1ryy	2c/	.	1g\	.	.	.	2cc\,<	-Svm	2c/	.	4g\	.	1g\	.	1g\	.	2ee-X\	.
.	.	.	.	.	.	.	.	.	.	.	4c/	.	.	.	.	.	.	.
!	!	!	!	!	!	!	!	!	!	!	!	!	!	!	!	!	!LO:LB:g=original	!
.	2G/	.	.	.	2b-\	-ne-	1dd\	be-	2g\	.	4d/	.	.	.	.	.	1dd\	-svm
.	.	.	.	.	.	.	.	.	.	.	4e/	.	.	.	.	.	.	.
*	*	*	*	*	*	*	*	*	*	*	*	*	*Xlig	*	*Xlig	*	*	*
=79-	=79-	=79-	=79-	=79-	=79-	=79-	=79-	=79-	=79-	=79-	=79-	=79-	=79-	=79-	=79-	=79-	=79-	=79-
1ryy	2d\,<	-svm	2a\	-Svm	1a\	-di-	.	.	2d\	-svm	2f\	-svm	1f/	be-	2a\	-svm	.	.
.	2d\	be-	2d/	be-	.	.	2dd\	-ne-	2r	.	2r	.	.	.	2r	.	2r	.
=80-	=80-	=80-	=80-	=80-	=80-	=80-	=80-	=80-	=80-	=80-	=80-	=80-	=80-	=80-	=80-	=80-	=80-	=80-
*	*	*	*	*	*	*	*	*	*	*	*	*	*lig	*	*	*	*	*
1ryy	2.c/	-ne-	1g\	-ne-	2g/,<	-ctum	2.ee-X\	-di-	0r	.	0r	.	1g\	-ne-	0r	.	0r	.
.	.	.	.	.	4a\	be-	.	.	.	.	.	.	.	.	.	.	.	.
.	4B-/	.	.	.	4b-\	-ne-	4dd\	.	.	.	.	.	.	.	.	.	.	.
=81-	=81-	=81-	=81-	=81-	=81-	=81-	=81-	=81-	=81-	=81-	=81-	=81-	=81-	=81-	=81-	=81-	=81-	=81-
1ryy	1A/	-di-	2.e/	-di-	1cc\	-di-	1cc\	.	.	.	.	.	1a\	.	.	.	.	.
.	.	.	4f\	.	.	.	.	.	.	.	.	.	.	.	.	.	.	.
*	*	*	*	*	*	*	*	*	*	*	*	*	*Xlig	*	*	*	*	*
=82-	=82-	=82-	=82-	=82-	=82-	=82-	=82-	=82-	=82-	=82-	=82-	=82-	=82-	=82-	=82-	=82-	=82-	=82-
*	*	*	*	*	*	*	*	*	*	*	*	*	*lig	*	*	*	*	*
1ryy	1G/	-ctum	1g\	-ctum	1b-\	-ctum	1dd\	-ctum	2r	.	1g\	be-	1b-\	-di-	2r	.	2.dd\	be-
.	.	.	.	.	.	.	.	.	2g\	be-	.	.	.	.	2b-\	be-	.	.
.	.	.	.	.	.	.	.	.	.	.	.	.	.	.	.	.	4eeny\	-ne-
=83-	=83-	=83-	=83-	=83-	=83-	=83-	=83-	=83-	=83-	=83-	=83-	=83-	=83-	=83-	=83-	=83-	=83-	=83-
*	*	*	*custos:f	*	*	*	*	*	*	*	*	*	*	*	*	*	*	*
1ryy	0r	.	0r	.	0r	.	0r	.	1f\	-ne-	2a\	-ne-	1a\	.	2.cc\	-ne-	1ff\	-di-
.	.	.	.	.	.	.	.	.	.	.	2f\	.	.	.	.	.	.	.
.	.	.	.	.	.	.	.	.	.	.	.	.	.	.	4dd\	.	.	.
=84-	=84-	=84-	=84-	=84-	=84-	=84-	=84-	=84-	=84-	=84-	=84-	=84-	=84-	=84-	=84-	=84-	=84-	=84-
1ryy	.	.	.	.	.	.	.	.	1e-X\	-di-	1g\	-di-	1g\	.	2ee-X\	-di-	1gg\	.
.	.	.	.	.	.	.	.	.	.	.	.	.	.	.	2cc\	.	.	.
*	*	*	*	*	*	*	*	*	*	*	*	*	*Xlig	*	*	*	*	*
=85-	=85-	=85-	=85-	=85-	=85-	=85-	=85-	=85-	=85-	=85-	=85-	=85-	=85-	=85-	=85-	=85-	=85-	=85-
!	!	!	!LO:LB:g=original	!	!	!	!	!	!	!	!	!	!LO:SIC:v:s=1f#	!	!	!	!LO:TX:t=P:problem=# below	!
1ryy	2r	.	2r	.	2r	.	2r	.	2d\	-ctum	2a\	-ctum	1f/,<	-ctum	2dd\	-ctum	2ff#X\	-ctum
.	2d\	be-	2f\	be-	2a\	be-	2dd\	be-	2r	.	2r	.	.	.	2r	.	2r	.
=86-	=86-	=86-	=86-	=86-	=86-	=86-	=86-	=86-	=86-	=86-	=86-	=86-	=86-	=86-	=86-	=86-	=86-	=86-
!	!	!	!	!	!LO:PB:g=original	!	!	!	!	!	!	!	!	!	!	!	!	!
1ryy	2f\	-ne-	2a\	-ne-	2a\	-ne-	2cc\	-ne-	00r	.	00r	.	1cc\	fru-	00r	.	00r	.
*	*	*	*	*	*	*	*custos:b-	*	*	*	*	*	*	*	*	*	*	*
.	2f\	-di-	2a\	-di-	2f/	-di-	2a/	-di-	.	.	.	.	.	.	.	.	.	.
=87-	=87-	=87-	=87-	=87-	=87-	=87-	=87-	=87-	=87-	=87-	=87-	=87-	=87-	=87-	=87-	=87-	=87-	=87-
*	*	*	*	*	*	*	*	*	*	*	*	*	*lig	*	*	*	*	*
!	!	!	!	!	!	!	!LO:LB:g=original	!	!	!	!	!	!	!	!	!	!	!
1ryy	1g\	-ctum	1g\	-ctum	2b-\	-ctum	2.b-/	-ctum	.	.	.	.	1b-\	-crum	.	.	.	.
.	.	.	.	.	2dd\	fru-	.	.	.	.	.	.	.	.	.	.	.	.
.	.	.	.	.	.	.	4cc\	.	.	.	.	.	.	.	.	.	.	.
=88-	=88-	=88-	=88-	=88-	=88-	=88-	=88-	=88-	=88-	=88-	=88-	=88-	=88-	=88-	=88-	=88-	=88-	=88-
1ryy	2d\	fru-	2a\	fru-	1a\	-ctum	2dd\	.	.	.	.	.	1a\	.	.	.	.	.
.	2f\	-ctum	2f\	-ctum	.	.	2cc\	fru-	.	.	.	.	.	.	.	.	.	.
*	*	*	*	*	*	*	*	*	*	*	*	*	*Xlig	*	*	*	*	*
=89-	=89-	=89-	=89-	=89-	=89-	=89-	=89-	=89-	=89-	=89-	=89-	=89-	=89-	=89-	=89-	=89-	=89-	=89-
*	*	*	*	*	*	*	*	*	*	*	*	*	*lig	*	*	*	*	*
1ryy	2g\	ven-	2b-\	ven-	2b-\	ven-	2b-/	-ctum	.	.	.	.	1g\	ven-	.	.	.	.
*	*custos:f	*	*	*	*	*	*	*	*	*	*	*	*	*	*	*	*	*
.	2g\	-tris	2b-\	-tris	2b-\	-tris	2dd\	ven-	.	.	.	.	.	.	.	.	.	.
=90-	=90-	=90-	=90-	=90-	=90-	=90-	=90-	=90-	=90-	=90-	=90-	=90-	=90-	=90-	=90-	=90-	=90-	=90-
!	!LO:PB:g=original	!	!	!	!	!	!	!	!	!	!	!	!	!	!	!	!	!
1ryy	4f\	tu-	4a\	tu-	1cc\	tu-	2cc\	-tris	0r	.	0r	.	1a\	.	0r	.	0r	.
.	4e-X\	.	4g\	.	.	.	.	.	.	.	.	.	.	.	.	.	.	.
.	4d\	.	2f\	.	.	.	2cc\	tu-	.	.	.	.	.	.	.	.	.	.
.	4c/	.	.	.	.	.	.	.	.	.	.	.	.	.	.	.	.	.
=91-	=91-	=91-	=91-	=91-	=91-	=91-	=91-	=91-	=91-	=91-	=91-	=91-	=91-	=91-	=91-	=91-	=91-	=91-
1ryy	1B-/	-i	1f\	-i	1b-\	-i	1dd\	-i	.	.	.	.	1b-\	.	.	.	.	.
*	*	*	*	*	*	*	*	*	*	*	*	*	*Xlig	*	*	*	*	*
=92-	=92-	=92-	=92-	=92-	=92-	=92-	=92-	=92-	=92-	=92-	=92-	=92-	=92-	=92-	=92-	=92-	=92-	=92-
1ryy	00r	.	00r	.	00r	.	00r	.	1f\	fru-	1a\	fru-	1cc\	-tris	2cc\	fru-	2.ffny\	fru-
.	.	.	.	.	.	.	.	.	.	.	.	.	.	.	2a\	.	.	.
.	.	.	.	.	.	.	.	.	.	.	.	.	.	.	.	.	4ee\	.
=93-	=93-	=93-	=93-	=93-	=93-	=93-	=93-	=93-	=93-	=93-	=93-	=93-	=93-	=93-	=93-	=93-	=93-	=93-
*	*	*	*	*	*	*	*	*	*	*	*	*	*lig	*	*	*	*	*
1ryy	.	.	.	.	.	.	.	.	1g\	-ctum	1g\	-ctum	1b-\	tu-	1dd\	-ctum	1dd\	-ctum
=94-	=94-	=94-	=94-	=94-	=94-	=94-	=94-	=94-	=94-	=94-	=94-	=94-	=94-	=94-	=94-	=94-	=94-	=94-
1ryy	.	.	.	.	.	.	.	.	2c/	ve-	2g\	ven-	1a\	.	2cc\	ven-	4ee\	.
.	.	.	.	.	.	.	.	.	.	.	.	.	.	.	.	.	4ff\	.
.	.	.	.	.	.	.	.	.	2e-X\	-tris	2g\	-tris	.	.	4b-\	-tris	2.gg\	ven-
.	.	.	.	.	.	.	.	.	.	.	.	.	.	.	4cc\	.	.	.
=95-	=95-	=95-	=95-	=95-	=95-	=95-	=95-	=95-	=95-	=95-	=95-	=95-	=95-	=95-	=95-	=95-	=95-	=95-
1ryy	.	.	.	.	.	.	.	.	1d\	tu-	1a\	tu-	1g\	.	1dd\	tu-	.	.
.	.	.	.	.	.	.	.	.	.	.	.	.	.	.	.	.	8ff\L	-tris
.	.	.	.	.	.	.	.	.	.	.	.	.	.	.	.	.	8ee\J	.
!	!	!	!	!	!	!	!	!	!	!	!	!	!	!	!	!	!LO:TX:t=P:problem=# below	!
.	.	.	.	.	.	.	.	.	.	.	.	.	.	.	.	.	2ff#X\	tu-
=96-	=96-	=96-	=96-	=96-	=96-	=96-	=96-	=96-	=96-	=96-	=96-	=96-	=96-	=96-	=96-	=96-	=96-	=96-
!LO:TX:t=P:problem=po konsultacji z JI dodany takt	!LO:TX:t=P:problem=po konsultacji z JI dodany takt	!	!LO:TX:t=P:problem=po konsultacji z JI dodany takt	!	!LO:TX:t=P:problem=po konsultacji z JI dodany takt	!	!LO:TX:t=P:problem=po konsultacji z JI dodany takt	!	!LO:TX:t=P:problem=po konsultacji z JI dodany takt	!	!LO:TX:t=P:problem=po konsultacji z JI dodany takt	!	!LO:TX:t=P:problem=niepotrzebny dźwięk	!	!	!	!LO:TX:t=P:problem=po konsultacji z JI dodany takt	!
1ryy	1ryy	.	1ryy	.	1ryy	.	1ryy	.	1ryy	.	1ryy	.	1f/	.	1ryy	.	1ryy	.
*	*	*	*	*	*	*	*	*	*	*	*	*	*Xlig	*	*	*	*	*
=97-	=97-	=97-	=97-	=97-	=97-	=97-	=97-	=97-	=97-	=97-	=97-	=97-	=97-	=97-	=97-	=97-	=97-	=97-
*	*	*	*	*	*	*	*	*	*	*	*	*	*custos:g	*	*	*	*	*
1ryy	2r	.	2r	.	2r	.	2r	.	1G/	-i	1g\	-i	1g\	-i	1dd\	-u	1gg\	-i
.	2G/	no-	2g\	no-	2b-\	no-	2dd\	no-	.	.	.	.	.	.	.	.	.	.
=98-	=98-	=98-	=98-	=98-	=98-	=98-	=98-	=98-	=98-	=98-	=98-	=98-	=98-	=98-	=98-	=98-	=98-	=98-
*	*	*	*	*	*	*	*	*	*	*	*	*	*lig	*	*	*	*	*
!	!	!	!	!	!	!	!	!	!	!	!	!	!LO:LB:g=original	!	!	!	!	!
1ryy	1c\	-bis	1g\	-bis	1cc\	-bis	1eeny\	-bis	2r	.	2r	.	1g\	no-	2r	.	2r	.
*	*	*	*	*	*	*	*	*	*custos:B-	*	*	*	*	*	*	*	*	*
.	.	.	.	.	.	.	.	.	2c/	post	4g\	post	.	.	2cc\	post	2ee\	post
.	.	.	.	.	.	.	.	.	.	.	4a\	.	.	.	.	.	.	.
=99-	=99-	=99-	=99-	=99-	=99-	=99-	=99-	=99-	=99-	=99-	=99-	=99-	=99-	=99-	=99-	=99-	=99-	=99-
*	*	*	*	*	*	*	*	*	*	*	*custos:b-	*	*	*	*custos:b-	*	*	*
!	!	!	!	!	!	!	!	!	!LO:LB:g=original	!	!	!	!	!	!	!	!	!
1ryy	00r	.	00r	.	00r	.	00r	.	2B-/	hoc	2b-\	hoc	1dd\	.	2dd\	hoc	2ffny\	hoc
!	!	!	!	!	!	!	!	!	!	!	!LO:LB:g=original	!	!	!	!LO:LB:g=original	!	!	!
.	.	.	.	.	.	.	.	.	2B-/	e-	2b-\	e-	.	.	2b-\	e-	2ff\	e-
=100-	=100-	=100-	=100-	=100-	=100-	=100-	=100-	=100-	=100-	=100-	=100-	=100-	=100-	=100-	=100-	=100-	=100-	=100-
!	!	!	!	!	!	!	!	!	!	!	!	!	!LO:TX:a:t=JI&colon; na moje oko tam jest bemol schowany pod tekstem	!	!	!	!	!
1ryy	.	.	.	.	.	.	.	.	2.e-X\	-xi-	2.g\	-xi-	1ee-X\	.	2.b-\	-xi-	2.gg\	-xi-
.	.	.	.	.	.	.	.	.	4e-\	-li-	4g\	-li-	.	.	4b-\	-li-	4gg\	-li-
=101-	=101-	=101-	=101-	=101-	=101-	=101-	=101-	=101-	=101-	=101-	=101-	=101-	=101-	=101-	=101-	=101-	=101-	=101-
*	*	*	*	*	*	*	*	*	*	*	*	*	*	*	*	*	*custos:dd	*
1ryy	.	.	.	.	.	.	.	.	4B-/	-um	2b-\	-um	1dd\	.	2dd\	-um	2ff\	-um
.	.	.	.	.	.	.	.	.	4c/	.	.	.	.	.	.	.	.	.
!	!	!	!	!	!	!	!	!	!	!	!	!	!	!	!	!	!LO:LB:g=original	!
.	.	.	.	.	.	.	.	.	4d\	o-	2.b-\	o-	.	.	2b-\	o-	4dd\	o-
.	.	.	.	.	.	.	.	.	4eny\	.	.	.	.	.	.	.	4ee\	.
=102-	=102-	=102-	=102-	=102-	=102-	=102-	=102-	=102-	=102-	=102-	=102-	=102-	=102-	=102-	=102-	=102-	=102-	=102-
1ryy	.	.	.	.	.	.	.	.	1f\	-ſten-	.	.	1cc\	.	1cc\	-ſten-	1ff\	-ſten-
.	.	.	.	.	.	.	.	.	.	.	8a\L	.	.	.	.	.	.	.
.	.	.	.	.	.	.	.	.	.	.	8g\J	.	.	.	.	.	.	.
.	.	.	.	.	.	.	.	.	.	.	2a\	-ſten-	.	.	.	.	.	.
*	*	*	*	*	*	*	*	*	*	*	*	*	*Xlig	*	*	*	*	*
=103-	=103-	=103-	=103-	=103-	=103-	=103-	=103-	=103-	=103-	=103-	=103-	=103-	=103-	=103-	=103-	=103-	=103-	=103-
1ryy	2r	.	2r	.	2r	.	2r	.	2B-/	-de	2b-\	-de	1dd\,<	-bis	2b-\	-de	2ff\	-de
.	2G/	no-	2g\	no-	2b-\	no-	2dd\	no-	2r	.	2r	.	.	.	2r	.	2r	.
=104-	=104-	=104-	=104-	=104-	=104-	=104-	=104-	=104-	=104-	=104-	=104-	=104-	=104-	=104-	=104-	=104-	=104-	=104-
!	!	!	!LO:TX:t=P:problem=# below	!	!	!	!	!	!	!	!	!	!	!	!	!	!	!
*	*	*	*	*	*	*	*	*	*	*	*	*	*lig	*	*	*	*	*
1ryy	1d\	-bis	1f#X\	-bis	1a\	-bis	1dd\	-bis	2r	.	2r	.	1dd\	post	2r	.	2r	.
.	.	.	.	.	.	.	.	.	2d\	post	2a\	post	.	.	2dd\	post	2ff\	post
=105-	=105-	=105-	=105-	=105-	=105-	=105-	=105-	=105-	=105-	=105-	=105-	=105-	=105-	=105-	=105-	=105-	=105-	=105-
1ryy	00r	.	00r	.	00r	.	00r	.	2f\	hoc	2f\	hoc	1cc\	.	2a\	hoc	2ff\	hoc
.	.	.	.	.	.	.	.	.	2f\	e-	2a\	e-	.	.	2a\	e-	2ff\	e-
=106-	=106-	=106-	=106-	=106-	=106-	=106-	=106-	=106-	=106-	=106-	=106-	=106-	=106-	=106-	=106-	=106-	=106-	=106-
1ryy	.	.	.	.	.	.	.	.	2.g\	-xi-	2.g\	-xi-	1b-\	.	2.dd\	-xi-	2.dd\	-xi-
.	.	.	.	.	.	.	.	.	4g\	-li-	4g\	-li-	.	.	4dd\	-li-	4ee\	-li-
*	*	*	*	*	*	*	*	*	*	*	*	*	*Xlig	*	*	*	*	*
=107-	=107-	=107-	=107-	=107-	=107-	=107-	=107-	=107-	=107-	=107-	=107-	=107-	=107-	=107-	=107-	=107-	=107-	=107-
1ryy	.	.	.	.	.	.	.	.	1f\	-um	1a\	-um	1cc\,<	hoc	2a\	-um	1ff\	-um
.	.	.	.	.	.	.	.	.	.	.	.	.	.	.	2cc\	o-	.	.
=108-	=108-	=108-	=108-	=108-	=108-	=108-	=108-	=108-	=108-	=108-	=108-	=108-	=108-	=108-	=108-	=108-	=108-	=108-
*	*	*	*	*	*	*	*	*	*	*	*	*	*lig	*	*	*	*	*
1ryy	.	.	.	.	.	.	.	.	2g\	o-	2g\	o-	1g\	e-	2.b-\	-ſten-	2dd\	o-
.	.	.	.	.	.	.	.	.	2e-X\	-ſten-	2g\	-sten-	.	.	.	.	2gg\	-ſten-
.	.	.	.	.	.	.	.	.	.	.	.	.	.	.	4cc\	.	.	.
=109-	=109-	=109-	=109-	=109-	=109-	=109-	=109-	=109-	=109-	=109-	=109-	=109-	=109-	=109-	=109-	=109-	=109-	=109-
1ryy	2r	.	2r	.	2r	.	2r	.	1d\	-de	1f\	-de	1a\	.	1dd\	-de	1ff#X\	-de
!	!	!	!	!	!	!	!LO:TX:t=P:problem=# below	!	!	!	!	!	!	!	!	!	!	!
.	2d\	no-	2a\	no-	2dd\	no-	2ff#X\	no-	.	.	.	.	.	.	.	.	.	.
*	*	*	*	*	*	*	*	*	*	*	*	*	*Xlig	*	*	*	*	*
=110-	=110-	=110-	=110-	=110-	=110-	=110-	=110-	=110-	=110-	=110-	=110-	=110-	=110-	=110-	=110-	=110-	=110-	=110-
!	!	!	!	!	!LO:TX:t=P:problem=niewyraźne źródło	!	!	!	!	!	!	!	!	!	!	!	!	!
*	*	*	*	*	*	*	*	*	*	*	*	*	*lig	*	*	*	*	*
1ryy	1g\	-bis	1b-\	-bis	1dd\	-bis	1gg\	-bis	2r	.	2r	.	1b-\	-xi-	2r	.	2r	.
.	.	.	.	.	.	.	.	.	2g\	post	2g\	post	.	.	2b-\	post	4dd\	post
.	.	.	.	.	.	.	.	.	.	.	.	.	.	.	.	.	4ee\	.
=111-	=111-	=111-	=111-	=111-	=111-	=111-	=111-	=111-	=111-	=111-	=111-	=111-	=111-	=111-	=111-	=111-	=111-	=111-
1ryy	00r	.	00r	.	00r	.	00r	.	2f\	hoc	2a\	hoc	1a\	.	2cc\	hoc	2ffny\	hoc
*	*	*	*	*	*	*	*	*	*custos:e-	*	*	*	*	*	*	*	*	*
.	.	.	.	.	.	.	.	.	2d\	e-	2f\	e-	.	.	2dd\	e-	2ff\	e-
*	*	*	*	*	*	*	*	*	*	*	*	*	*Xlig	*	*	*	*	*
=112-	=112-	=112-	=112-	=112-	=112-	=112-	=112-	=112-	=112-	=112-	=112-	=112-	=112-	=112-	=112-	=112-	=112-	=112-
!	!	!	!	!	!	!	!	!	!LO:LB:g=original	!	!	!	!	!	!	!	!	!
1ryy	.	.	.	.	.	.	.	.	2e-X\	-xi-	2g\	-xi-	1g\	-li-	2b-\	-xi-	2ee-X\	xi-
*	*	*	*	*	*	*	*	*	*	*	*custos:f	*	*	*	*custos:a	*	*	*
.	.	.	.	.	.	.	.	.	2c/	-li-	2e-X/	-li-	.	.	2cc\	-li-	2ee-\	-li-
=113-	=113-	=113-	=113-	=113-	=113-	=113-	=113-	=113-	=113-	=113-	=113-	=113-	=113-	=113-	=113-	=113-	=113-	=113-
!	!	!	!	!	!	!	!	!	!	!	!LO:LB:g=original	!	!	!	!LO:LB:g=original	!	!	!
1ryy	.	.	.	.	.	.	.	.	2d\	-um	2f\	-um	1f/	-um	2a\	-um	2.dd\	-um
.	.	.	.	.	.	.	.	.	2B-/	.	2d/	o-	.	.	2b-\	o-	.	.
.	.	.	.	.	.	.	.	.	.	.	.	.	.	.	.	.	4eeny\,<	.
=114-	=114-	=114-	=114-	=114-	=114-	=114-	=114-	=114-	=114-	=114-	=114-	=114-	=114-	=114-	=114-	=114-	=114-	=114-
*	*	*	*	*	*	*	*	*	*lig	*	*	*	*lig	*	*	*	*	*
!	!	!	!	!	!	!	!	!	!	!	!	!	!LO:SIC:v:l:s=o-	!	!	!	!	!
1ryy	.	.	.	.	.	.	.	.	1f\	o-	4f\	-ſten-	1a\	oſt-	1cc\	-ſten-	2.ff\	o-
.	.	.	.	.	.	.	.	.	.	.	4g\	.	.	.	.	.	.	.
.	.	.	.	.	.	.	.	.	.	.	2a\	.	.	.	.	.	.	.
*	*	*	*	*	*	*	*	*	*	*	*	*	*	*	*	*	*custos:dd	*
.	.	.	.	.	.	.	.	.	.	.	.	.	.	.	.	.	4ee\	.
=115-	=115-	=115-	=115-	=115-	=115-	=115-	=115-	=115-	=115-	=115-	=115-	=115-	=115-	=115-	=115-	=115-	=115-	=115-
!	!	!	!	!	!	!	!	!	!	!	!	!	!	!	!	!	!LO:LB:g=original	!
1ryy	00r	.	00r	.	00r	.	00r	.	1g\	.	1b-\	.	1g\	.	2b-\	-de	2.dd\	-ſten-
.	.	.	.	.	.	.	.	.	.	.	.	.	.	.	2b-\	o-	.	.
.	.	.	.	.	.	.	.	.	.	.	.	.	.	.	.	.	4ee\	.
*	*	*	*	*	*	*	*	*	*Xlig	*	*	*	*	*	*	*	*	*
=116-	=116-	=116-	=116-	=116-	=116-	=116-	=116-	=116-	=116-	=116-	=116-	=116-	=116-	=116-	=116-	=116-	=116-	=116-
1ryy	.	.	.	.	.	.	.	.	4f\	-ſten-	1a\	.	1a\	.	1cc\	-ſten-	1ff\	.
.	.	.	.	.	.	.	.	.	4eny\	.	.	.	.	.	.	.	.	.
.	.	.	.	.	.	.	.	.	4d\	.	.	.	.	.	.	.	.	.
.	.	.	.	.	.	.	.	.	4c/	.	.	.	.	.	.	.	.	.
=117-	=117-	=117-	=117-	=117-	=117-	=117-	=117-	=117-	=117-	=117-	=117-	=117-	=117-	=117-	=117-	=117-	=117-	=117-
1ryy	.	.	.	.	.	.	.	.	2B-/,<	-de	2d/,<	-de	1b-\	.	2dd\	-de	2ff\,<	-de
.	.	.	.	.	.	.	.	.	2G/	o-	2g\	o-	.	.	1dd\	o-	2.gg\	o-
=118-	=118-	=118-	=118-	=118-	=118-	=118-	=118-	=118-	=118-	=118-	=118-	=118-	=118-	=118-	=118-	=118-	=118-	=118-
1ryy	.	.	.	.	.	.	.	.	1d\	-ſten-	2a\	-ſten-	1a\	.	.	.	.	.
.	.	.	.	.	.	.	.	.	.	.	.	.	.	.	.	.	8ff\L	.
.	.	.	.	.	.	.	.	.	.	.	.	.	.	.	.	.	8ee\J	.
!	!	!	!	!	!	!	!	!	!	!	!	!	!	!	!	!	!LO:TX:t=P:problem=# below	!
.	.	.	.	.	.	.	.	.	.	.	2d/	.	.	.	2a\	-ſten-	2ff#X\	-ſten-
=119-	=119-	=119-	=119-	=119-	=119-	=119-	=119-	=119-	=119-	=119-	=119-	=119-	=119-	=119-	=119-	=119-	=119-	=119-
!	!	!	!	!	!	!	!	!	!	!	!	!	!	!	!LO:TX:t=P:problem=# below	!	!	!
!	!	!	!	!	!	!	!	!	!	!	!	!	!	!	!LO:N:acc=#	!	!	!
1ryy	2r	.	2r	.	2r	.	2r	.	2G/	-de	2g\	-de	1g\	.	2bn\	-de	2gg\	-de
.	2G/	o-	2b-\	o-	2dd\	o-	2.gg\	o-	2r	.	2r	.	.	.	2r	.	2r	.
*	*	*	*	*	*	*	*	*	*	*	*	*	*Xlig	*	*	*	*	*
=120-	=120-	=120-	=120-	=120-	=120-	=120-	=120-	=120-	=120-	=120-	=120-	=120-	=120-	=120-	=120-	=120-	=120-	=120-
*	*	*	*custos:a	*	*	*	*	*	*	*	*	*	*	*	*	*	*	*
1ryy	1d\	-ſten-	1a\	-ſten-	1dd\	-sten-	.	.	1r	.	1r	.	1f/	-ſten-	1r	.	1r	.
.	.	.	.	.	.	.	8ee\L	-ſten-	.	.	.	.	.	.	.	.	.	.
.	.	.	.	.	.	.	8dd\J	.	.	.	.	.	.	.	.	.	.	.
.	.	.	.	.	.	.	4ff#X\	.	.	.	.	.	.	.	.	.	.	.
.	.	.	.	.	.	.	4aa\	.	.	.	.	.	.	.	.	.	.	.
=121-	=121-	=121-	=121-	=121-	=121-	=121-	=121-	=121-	=121-	=121-	=121-	=121-	=121-	=121-	=121-	=121-	=121-	=121-
*	*	*	*	*	*	*	*custos:cc	*	*	*	*	*	*	*	*	*	*	*
!	!	!	!LO:LB:g=original	!	!	!	!	!	!	!	!	!	!	!	!	!	!	!
1ryy	2G/	-de	2b-\	-de	2dd\,<	-de	2gg\	-de	2r	.	2r	.	[1g\;l	-de	2r	.	2r	.
!	!	!	!	!	!	!	!	!	!	!	!	!	!	!	!LO:TX:t=P:problem=# below	!	!	!
!	!	!	!	!	!	!	!LO:PB:g=original	!	!	!	!	!	!	!	!LO:N:acc=#	!	!	!
.	2G/	o-	2g\	o-	2b-\	o-	2dd\	o-	2g\	o-	2g\	o-	.	.	2bn\	o-	2gg\	o-
=122-	=122-	=122-	=122-	=122-	=122-	=122-	=122-	=122-	=122-	=122-	=122-	=122-	=122-	=122-	=122-	=122-	=122-	=122-
1ryy	0c\	-ſten-	0g\	-ſten-	0g\	-sten-	2.cc\	-ſten-	0c\	-ſten-	0g\	-ſten-	1g\_	.	0cc\	-ſten-	4gg\	-ſten-
.	.	.	.	.	.	.	.	.	.	.	.	.	.	.	.	.	4ffny\	.
.	.	.	.	.	.	.	.	.	.	.	.	.	.	.	.	.	4ee-X\	.
.	.	.	.	.	.	.	4dd\	.	.	.	.	.	.	.	.	.	4dd\	.
=123-	=123-	=123-	=123-	=123-	=123-	=123-	=123-	=123-	=123-	=123-	=123-	=123-	=123-	=123-	=123-	=123-	=123-	=123-
1ryy	.	.	.	.	.	.	4ee-X\	.	.	.	.	.	1g\_	.	.	.	4cc\	.
.	.	.	.	.	.	.	4dd\	.	.	.	.	.	.	.	.	.	4dd\	.
.	.	.	.	.	.	.	2cc\	.	.	.	.	.	.	.	.	.	2ee-X\	.
=124-	=124-	=124-	=124-	=124-	=124-	=124-	=124-	=124-	=124-	=124-	=124-	=124-	=124-	=124-	=124-	=124-	=124-	=124-
!	!	!	!	!	!	!	!	!	!LO:TX:t=P:problem=podwójna kreska pseudotaktowa	!	!	!	!	!	!LO:N:acc=#	!	!	!
0ryy	0G/;	-de	0d/;	-de	0dd\;	-de	0dd\;	-de	0g\;	-de	0g\;	-de	0g\]	.	0bn\;	-de	0dd\;	-de.
=125-	=125-	=125-	=125-	=125-	=125-	=125-	=125-	=125-	=125-	=125-	=125-	=125-	=125-	=125-	=125-	=125-	=125-	=125-
*	*	*	*M2/2	*	*	*	*M2/2	*	*	*	*	*	*	*	*M2/2	*	*	*
*	*	*	*met(C|)	*	*	*	*met(C|)	*	*	*	*	*	*lig	*	*met(C|)	*	*	*
!	!LO:LB:g=original	!	!	!	!LO:LB:g=original	!	!	!	!	!	!LO:PB:g=original	!	!LO:LB:g=original	!	!	!	!LO:PB:g=original	!
1ryy	1G/	Ô	1g\	Ô	1b-\	Ô	2dd\	Ô	4g\	O	1g\	Ô	1dd\	Ô	1b-y\	Ô	2.gg\	O
.	.	.	.	.	.	.	.	.	4f\	.	.	.	.	.	.	.	.	.
.	.	.	.	.	.	.	2b-/	.	4e\	.	.	.	.	.	.	.	.	.
.	.	.	.	.	.	.	.	.	4d\	.	.	.	.	.	.	.	4ff\	.
=126-	=126-	=126-	=126-	=126-	=126-	=126-	=126-	=126-	=126-	=126-	=126-	=126-	=126-	=126-	=126-	=126-	=126-	=126-
1ryy	1c\	pi-	1.g\	pi-	2.g/	pi-	1cc\	pi-	4c/	.	1g\	pi-	1cc\	.	1cc\	pi-	1ee-X\	pi-
.	.	.	.	.	.	.	.	.	4d\	.	.	.	.	.	.	.	.	.
.	.	.	.	.	.	.	.	.	4e\	.	.	.	.	.	.	.	.	.
.	.	.	.	.	4a\	-a	.	.	4f\	.	.	.	.	.	.	.	.	.
=127-	=127-	=127-	=127-	=127-	=127-	=127-	=127-	=127-	=127-	=127-	=127-	=127-	=127-	=127-	=127-	=127-	=127-	=127-
*	*	*	*	*	*	*	*	*	*	*	*	*	*	*	*custos:cc	*	*	*
1ryy	2G/,<	-a	.	.	1b-\	.	2b-/,<	-a	2g\	.	1g\,<	-a	1dd\	.	1b-\	-a	1dd\,<	-a
.	2g\	Ô	2d/	-a	.	.	2dd\	ô	2G/	pi-	.	.	.	.	.	.	.	.
=128-	=128-	=128-	=128-	=128-	=128-	=128-	=128-	=128-	=128-	=128-	=128-	=128-	=128-	=128-	=128-	=128-	=128-	=128-
*	*	*	*	*	*	*	*	*	*	*	*	*	*	*	*	*	*lig	*
!	!	!	!	!	!	!	!	!	!	!	!	!	!	!	!LO:LB:g=original	!	!	!
1ryy	4c/	pi-	2r	.	2r	.	0cc\	pi-	2c/	-a	1g\	ô	1eeny\	.	1cc\	ô	1gg\	Ô
.	4B-/	.	.	.	.	.	.	.	.	.	.	.	.	.	.	.	.	.
.	4A/	.	2g\	ô	2cc\	ô	.	.	2c/	ô	.	.	.	.	.	.	.	.
.	4G/	.	.	.	.	.	.	.	.	.	.	.	.	.	.	.	.	.
=129-	=129-	=129-	=129-	=129-	=129-	=129-	=129-	=129-	=129-	=129-	=129-	=129-	=129-	=129-	=129-	=129-	=129-	=129-
1ryy	4F/	.	1c/	pi-	2.a\	pi-	.	.	1f\	pi-	1a\	pi-	1ff\	.	1cc\	pi-	1ff\	.
.	4G/	.	.	.	.	.	.	.	.	.	.	.	.	.	.	.	.	.
.	4A/	.	.	.	.	.	.	.	.	.	.	.	.	.	.	.	.	.
.	4B-/	.	.	.	4b-\	.	.	.	.	.	.	.	.	.	.	.	.	.
*	*	*	*	*	*	*	*	*	*	*	*	*	*	*	*	*	*Xlig	*
=130-	=130-	=130-	=130-	=130-	=130-	=130-	=130-	=130-	=130-	=130-	=130-	=130-	=130-	=130-	=130-	=130-	=130-	=130-
1ryy	2c/	.	1g\	-a	2cc\,<	-a	2cc\,<	-a	2c/	-a	1g\	-a	1gg\	.	2cc\	-a	4eeny\	.
.	.	.	.	.	.	.	.	.	.	.	.	.	.	.	.	.	4ff\	.
.	2G/	.	.	.	2b-\	ô	2dd\	ô	2g\	ô	.	.	.	.	1dd\	ô	2gg\	.
=131-	=131-	=131-	=131-	=131-	=131-	=131-	=131-	=131-	=131-	=131-	=131-	=131-	=131-	=131-	=131-	=131-	=131-	=131-
*	*	*	*	*	*	*	*lig	*	*lig	*	*	*	*	*	*	*	*	*
1ryy	4d\	.	2r	.	1a\	pi-	1dd\	pi-	1d\	pi-	2r	.	1ff\	.	.	.	1.aa\	.
.	4eny\	.	.	.	.	.	.	.	.	.	.	.	.	.	.	.	.	.
.	4f\	.	2a\	ô	.	.	.	.	.	.	2a\	ô	.	.	2a\	pi-	.	.
.	4g\	.	.	.	.	.	.	.	.	.	.	.	.	.	.	.	.	.
=132-	=132-	=132-	=132-	=132-	=132-	=132-	=132-	=132-	=132-	=132-	=132-	=132-	=132-	=132-	=132-	=132-	=132-	=132-
1ryy	4a\	.	1.a\	pi-	1a\	-a	1cc\	.	1A/	.	1a\	pi-	1ee\	.	1a\	-a	.	.
.	4g\	.	.	.	.	.	.	.	.	.	.	.	.	.	.	.	.	.
.	4f\	.	.	.	.	.	.	.	.	.	.	.	.	.	.	.	2ee\	pi-
.	4e\	.	.	.	.	.	.	.	.	.	.	.	.	.	.	.	.	.
*	*	*	*	*	*	*	*Xlig	*	*Xlig	*	*	*	*	*	*	*	*	*
=133-	=133-	=133-	=133-	=133-	=133-	=133-	=133-	=133-	=133-	=133-	=133-	=133-	=133-	=133-	=133-	=133-	=133-	=133-
!	!	!	!	!	!	!	!	!	!	!	!	!	!	!	!	!	!LO:TX:t=P:problem=# below	!
1ryy	2d\,<	-a	.	.	2r	.	2dd\,<	-a	2d\	-a	2a\,<	-a	1dd\	.	2dd\	ô	2ff#X\,<	-a
.	2d\	ô	2d/	-a	2a\	ô	2dd\	ô	2d\	ô	2a\	ô	.	.	2a\	pi-	2ff#\	ô
*	*	*	*	*	*	*	*	*	*	*	*	*	*Xlig	*	*	*	*	*
=134-	=134-	=134-	=134-	=134-	=134-	=134-	=134-	=134-	=134-	=134-	=134-	=134-	=134-	=134-	=134-	=134-	=134-	=134-
1ryy	1A/	pi-	2r	.	1a\	pi-	1eeny\	pi-	4a\	pi-	1a\	pi-	1cc\	pi-	1.a\	-a	1ee\	pi-
.	.	.	.	.	.	.	.	.	4g\	.	.	.	.	.	.	.	.	.
.	.	.	2a\	ô	.	.	.	.	4f\	.	.	.	.	.	.	.	.	.
.	.	.	.	.	.	.	.	.	4e\	.	.	.	.	.	.	.	.	.
=135-	=135-	=135-	=135-	=135-	=135-	=135-	=135-	=135-	=135-	=135-	=135-	=135-	=135-	=135-	=135-	=135-	=135-	=135-
!	!	!	!	!	!	!	!	!	!	!	!	!	!	!	!	!	!LO:TX:t=P:problem=# below	!
1ryy	2d\,<	-a	2a\	pi-	2a\,<	-a	2dd\	-a	2d\,<	-a	2a\,<	-a	[1dd\;l	-a	.	.	2ff#X\	-a
!	!	!	!	!	!	!	!	!	!	!	!LO:TX:t=P:problem=# below	!	!	!	!	!	!LO:TX:t=P:problem=# below	!
.	2d\	ô	2d/	.	2dd\	ô	2dd\	ô	2d\	ô	2f#X\	ô	.	.	1dd\	ô	2ff#X\	ô
=136-	=136-	=136-	=136-	=136-	=136-	=136-	=136-	=136-	=136-	=136-	=136-	=136-	=136-	=136-	=136-	=136-	=136-	=136-
1ryy	1g\	pi-	1.d/,<	-a	2b-\	pi-	1dd\	pi-	4G/	pi-	1g\	pi-	1dd\_	.	.	.	1gg\	pi-
.	.	.	.	.	.	.	.	.	4A/	.	.	.	.	.	.	.	.	.
.	.	.	.	.	2g/	.	.	.	4B-/	.	.	.	.	.	2b-\	pi-	.	.
.	.	.	.	.	.	.	.	.	4c/	.	.	.	.	.	.	.	.	.
=137-	=137-	=137-	=137-	=137-	=137-	=137-	=137-	=137-	=137-	=137-	=137-	=137-	=137-	=137-	=137-	=137-	=137-	=137-
!	!	!	!	!	!	!	!	!	!	!	!	!	!	!	!	!	!LO:TX:t=P:problem=# below	!
1ryy	2d\,<	-a	.	.	2a\,<	-a	2dd\	-a	2d\	-a	2a\,<	-a	1dd\_	.	2a\,<	-a	2ff#X\,<	-a
!	!	!	!	!	!	!	!	!	!	!	!	!	!	!	!	!	!LO:TX:t=P:problem=# below	!
.	2d\	ô	2d/	ô	2a\	ô	2dd\	ô	2d\	ô	2a\	ô	.	.	2a\	ô	2ff#X\	ô
=138-	=138-	=138-	=138-	=138-	=138-	=138-	=138-	=138-	=138-	=138-	=138-	=138-	=138-	=138-	=138-	=138-	=138-	=138-
1ryy	0G/	pi-	0d/	pi-	0b-\	pi-	0dd\	pi-	0g\	pi-	0g\	pi-	1dd\_	.	0dd\	pi-	1.gg\	.
=139-	=139-	=139-	=139-	=139-	=139-	=139-	=139-	=139-	=139-	=139-	=139-	=139-	=139-	=139-	=139-	=139-	=139-	=139-
1ryy	.	.	.	.	.	.	.	.	.	.	.	.	1dd\_	.	.	.	.	.
.	.	.	.	.	.	.	.	.	.	.	.	.	.	.	.	.	4ff\	pi-
.	.	.	.	.	.	.	.	.	.	.	.	.	.	.	.	.	4ee\	.
=140-	=140-	=140-	=140-	=140-	=140-	=140-	=140-	=140-	=140-	=140-	=140-	=140-	=140-	=140-	=140-	=140-	=140-	=140-
!	!	!	!	!	!	!	!	!	!	!	!	!	!	!	!	!	!LO:TX:t=P:problem=# below	!
0ryy	0d\;	-a	0d/;	-a	0a\;	-a	0dd;\	-a	0d\;	-a	0a\;	-a	0dd\]	.	0dd\;	-a	0ff#X\;	-a-
==	==	==	==	==	==	==	==	==	==	==	==	==	==	==	==	==	==	==
*-	*-	*-	*-	*-	*-	*-	*-	*-	*-	*-	*-	*-	*-	*-	*-	*-	*-	*-
!!!system-decoration: [(s1,s2,s3,s4,s5)][(s6,s7,s8,s9,s10)]
!!!RDF**kern: < = below
!!!RDF**kern: l = terminal long
!!!ENC: Anastazja Marusiak
!!!END: 2021-10-13
!!!EED: Andrzej Borzym
!!!EEV: 2021-10-20
!!!YEC: Copyright 2022 Narodowy Instytut Fryderyka Chopina (https://polishscores.org)
!!!YEM: Licence CC BY 4.0 (https://creativecommons.org/licenses/by/4.0)
